src/svg/grid.svg

<svg xmlns="http://www.w3.org/2000/svg" class="ionicon" viewBox="0 0 512 512"><title>Grid</title><path d="M204 240H68a36 36 0 01-36-36V68a36 36 0 0136-36h136a36 36 0 0136 36v136a36 36 0 01-36 36zM444 240H308a36 36 0 01-36-36V68a36 36 0 0136-36h136a36 36 0 0136 36v136a36 36 0 01-36 36zM204 480H68a36 36 0 01-36-36V308a36 36 0 0136-36h136a36 36 0 0136 36v136a36 36 0 01-36 36zM444 480H308a36 36 0 01-36-36V308a36 36 0 0136-36h136a36 36 0 0136 36v136a36 36 0 01-36 36z" fill="currentColor"/></svg>

<svg xmlns="http://www.w3.org/2000/svg" width="512" height="512" viewBox="0 0 512 512"><title>ionicons-v5-i</title><path d="M204,240H68a36,36,0,0,1-36-36V68A36,36,0,0,1,68,32H204a36,36,0,0,1,36,36V204A36,36,0,0,1,204,240Z"/><path d="M444,240H308a36,36,0,0,1-36-36V68a36,36,0,0,1,36-36H444a36,36,0,0,1,36,36V204A36,36,0,0,1,444,240Z"/><path d="M204,480H68a36,36,0,0,1-36-36V308a36,36,0,0,1,36-36H204a36,36,0,0,1,36,36V444A36,36,0,0,1,204,480Z"/><path d="M444,480H308a36,36,0,0,1-36-36V308a36,36,0,0,1,36-36H444a36,36,0,0,1,36,36V444A36,36,0,0,1,444,480Z"/></svg>
